X: 10343
T: Don Side
R: strathspey
M: 4/4
K: Gmajor
A|G/G/G B>G A>G EA|G/G/G B>G A>G BG|c>AB>G A>G Ee|d>cB>A BGG:|
e|gdgB A>G Ee|g>dg>B g>dg>a|b/a/g/e/ g>B A>G Ee|d>cB>A B>GG:|
a|g/g/g b>g a>g ea|g/g/g b>g a>gb>g|b/a/g/a/ b>g a>g eg|d>cB>A B>GG:|
E/F/|G>DB,>D EA, A,E/F/|G>DB,>D G,>DB,>D C>EB,>D EA,A,E|G/F/E/D/ B,>A, B,G,G,:|

